X:39
T:1151m to Donegal
M:4/4
L:1/8
R:reel
Q:1/4=210
K:D
T:Contradiction / no dots yet here
T:Heathery Cruach
|:Bc|d2AG FDAG|FDAF E2Bc|d2AG FDAG|FGAF Dgfe|
d2AG FDAG|FDAF E2FG|ABAG FDDE|FGAF D2:|
|:ed|cAA2 cAGB|cBcd efed|cAA2 cAGB|EFGE Dfed|
cAA2 cAGB|cBcd efe2|f2ed cAA2|EFGE A2:|
K:G
Q:1/4=235
T:The Glory Reel
|:"Em"G2BG "G"dGBG|"Em"G/2G/2G BG "D"AFDF|"Em"G2BG "G"dGBG|"C"c/2c/2c Bc "D"AFDF:|
|:"C"E6 cA|"Em"BGEB "D"AFDF|"Em"E2 ~E2 "Am"E2cA|1"G"BdcB "D"AFDF:|2"G"BdcB "D"AFDf||
|:"Em"gagf "Em"e^def|"Em"g2fg "A"e^cAf|"Em"gagf "Am"eaaf|1"Em"g2fg "A"e^cAf:|2"Em"g2 fg "A"e^cAF||





%wordsfont Times-Roman 13.0
%vocalfont Times-Roman 13.0
